X: 33205
T: Providence
R: jig
M: 6/8
K: Dmajor
|:F|DFF AFF|BFF AFE|DFF dFF|E^DE GFE|
DFF AFF|BFF ABc|dcd e/f/ge|fdd d2:|
|:B|Add fdd|add fdd|A2 g ge/f/g|e^de gfe|
[1 Ad/c/d fd/c/d|add efg|fed cA^G|Add d2:|
[2 dd/e/f geg|aa/g/f efg|fed cA^G|Add d2||

